X:2558
T:Cantar de Ronda (CT 200)
R:Ronda
C:Tradicional
S:Música Tradicional Asturiana, (C) Tello & Tito. Asturies, 2001.
S:http://pagina.de/MusTradAst <telloytito@asturies.org>
N:Canción de Ronda, transcrita y comunicada por Fray Secundino Magdalena, dominico, de treinta y un años, de Uviéu.
O:Uviéu
A:Asturies
Z:Cancioneru de Torner 200
M:2/4
L:1/8
Q:1/4=108
W:como yes tan buena moza
W:y vives con tanto honor,
W:te llaman la encantadora
W:y hechicera del amor.
K:G
d
|dc/B/ cd|c B2 d|dc/B/ cd|d2 z d|
dc/B/ cc|(BA/)G/ BB|(AG/)F/ AA|G2 z2||


